qml/pics/icon-m-scene_mode_large_aperture.svg

<?xml version="1.0" encoding="UTF-8" standalone="no"?>
<svg
   xmlns:dc="http://purl.org/dc/elements/1.1/"
   xmlns:cc="http://creativecommons.org/ns#"
   xmlns:rdf="http://www.w3.org/1999/02/22-rdf-syntax-ns#"
   xmlns:svg="http://www.w3.org/2000/svg"
   xmlns="http://www.w3.org/2000/svg"
   xmlns:sodipodi="http://sodipodi.sourceforge.net/DTD/sodipodi-0.dtd"
   xmlns:inkscape="http://www.inkscape.org/namespaces/inkscape"
   width="72"
   height="72"
   version="1.1"
   id="svg7313"
   sodipodi:docname="icon-m-scene_mode_large_aperture.svg"
   inkscape:version="0.92.4 (5da689c313, 2019-01-14)">
  <metadata
     id="metadata7319">
    <rdf:RDF>
      <cc:Work
         rdf:about="">
        <dc:format>image/svg+xml</dc:format>
        <dc:type
           rdf:resource="http://purl.org/dc/dcmitype/StillImage" />
        <dc:title></dc:title>
      </cc:Work>
    </rdf:RDF>
  </metadata>
  <defs
     id="defs7317" />
  <sodipodi:namedview
     pagecolor="#ffffff"
     bordercolor="#666666"
     borderopacity="1"
     objecttolerance="10"
     gridtolerance="10"
     guidetolerance="10"
     inkscape:pageopacity="0"
     inkscape:pageshadow="2"
     inkscape:window-width="1876"
     inkscape:window-height="1055"
     id="namedview7315"
     showgrid="false"
     inkscape:pagecheckerboard="true"
     inkscape:zoom="10.429825"
     inkscape:cx="47.759043"
     inkscape:cy="40.009387"
     inkscape:window-x="44"
     inkscape:window-y="0"
     inkscape:window-maximized="1"
     inkscape:current-layer="svg7313" />
  <path
     d="M 56.697421,11.163095 H 15.302578 a 4.1394841,5.228822 0 0 0 -4.139484,5.228824 v 39.216164 a 4.1394841,5.228822 0 0 0 4.139484,5.228823 h 41.394843 a 4.1394841,5.228822 0 0 0 4.139484,-5.228823 V 16.391919 a 4.1394841,5.228822 0 0 0 -4.139484,-5.228824 z"
     id="path7309"
     inkscape:connector-curvature="0"
     style="opacity:0.5;fill:none;stroke:#ffffff;stroke-width:2.32618928" />
  <path
     style="color:#ffffff;overflow:visible;isolation:auto;mix-blend-mode:normal;solid-color:#ffffff;solid-opacity:1;fill:#ffffff;fill-rule:evenodd;stroke-width:1.00438452;marker:none"
     d="m 36,22.434782 a 13.565217,13.565218 0 0 0 -8.515172,3.011145 H 40.44641 L 38.875552,22.751164 A 13.565217,13.565218 0 0 0 36,22.434782 Z m 4.95463,0.950149 6.422033,11.124563 1.521642,-2.65961 a 13.565217,13.565218 0 0 0 -7.944681,-8.464953 z m -11.620731,3.446042 -3.3215,0.01406 a 13.565217,13.565218 0 0 0 -3.577616,9.154965 13.565217,13.565218 0 0 0 0.218954,2.401483 z m 20.049524,6.988509 -6.421031,11.122553 3.237134,-0.01406 a 13.565217,13.565218 0 0 0 3.36569,-8.927974 13.565217,13.565218 0 0 0 -0.181793,-2.179513 z m -24.506982,3.511327 -1.715487,2.997083 a 13.565217,13.565218 0 0 0 8.321324,8.446876 z m 6.902131,9.102737 1.680334,2.884593 A 13.565217,13.565218 0 0 0 36,49.565218 13.565217,13.565218 0 0 0 44.651769,46.433546 Z"
     overflow="visible"
     id="path7311"
     inkscape:connector-curvature="0" />
</svg>

<svg xmlns="http://www.w3.org/2000/svg" width="72" height="72"><path d="M56.697 11.163H15.303a4.14 5.229 0 0 0-4.14 5.229v39.216a4.14 5.229 0 0 0 4.14 5.229h41.394a4.14 5.229 0 0 0 4.14-5.229V16.392a4.14 5.229 0 0 0-4.14-5.229z" opacity=".5" fill="none" stroke="#fff" stroke-width="2.326"/><path style="isolation:auto;mix-blend-mode:normal;solid-color:#fff;solid-opacity:1;marker:none" d="M36 22.435a13.565 13.565 0 0 0-8.515 3.01h12.961l-1.57-2.694A13.565 13.565 0 0 0 36 22.435zm4.955.95l6.422 11.124 1.521-2.66a13.565 13.565 0 0 0-7.944-8.464zM29.334 26.83l-3.322.014A13.565 13.565 0 0 0 22.435 36a13.565 13.565 0 0 0 .219 2.401zm20.05 6.988l-6.422 11.123 3.238-.014A13.565 13.565 0 0 0 49.565 36a13.565 13.565 0 0 0-.182-2.18zM24.876 37.33l-1.715 2.997a13.565 13.565 0 0 0 8.321 8.447zm6.903 9.103l1.68 2.884a13.565 13.565 0 0 0 2.541.247 13.565 13.565 0 0 0 8.652-3.131z" overflow="visible" color="#fff" fill="#fff" fill-rule="evenodd"/></svg>
